svg/color/fshn.svg

<?xml version="1.0" encoding="UTF-8" ?>
<!DOCTYPE svg PUBLIC "-//W3C//DTD SVG 1.1//EN" "http://www.w3.org/Graphics/SVG/1.1/DTD/svg11.dtd">
<svg width="250pt" height="250pt" viewBox="0 0 250 250" version="1.1" xmlns="http://www.w3.org/2000/svg">
<g id="#fffefeff">
<path fill="#fffefe" opacity="1.00" d=" M 0.00 0.00 L 250.00 0.00 L 250.00 250.00 L 0.00 250.00 L 0.00 0.00 M 52.07 78.88 C 51.35 80.10 50.75 81.39 50.30 82.74 L 50.36 83.65 C 44.69 98.87 50.07 116.24 58.76 129.17 C 63.49 139.10 70.98 147.60 77.61 156.34 C 91.91 172.82 105.80 190.99 125.00 201.97 C 131.21 199.36 136.16 194.51 141.24 190.25 C 159.73 171.55 178.44 152.06 191.53 129.18 C 199.24 116.43 205.52 100.77 200.65 85.89 C 200.55 85.62 200.35 85.07 200.25 84.80 C 199.93 83.23 199.48 81.68 198.85 80.20 C 192.24 62.40 169.88 50.36 151.88 57.80 C 141.09 61.02 135.00 71.54 125.00 75.97 C 113.05 70.24 105.38 57.10 91.12 55.75 C 75.22 53.99 57.81 63.78 52.07 78.88 Z" />
</g>
<g id="#dd0a03ff">
<path fill="#dd0a03" opacity="1.00" d=" M 52.07 78.88 C 57.81 63.78 75.22 53.99 91.12 55.75 C 105.38 57.10 113.05 70.24 125.00 75.97 C 135.00 71.54 141.09 61.02 151.88 57.80 C 169.88 50.36 192.24 62.40 198.85 80.20 C 197.50 79.48 196.29 77.69 194.59 78.51 C 179.20 82.59 162.74 84.67 149.96 94.93 C 140.08 100.20 128.73 107.08 117.08 102.94 C 106.05 99.05 96.25 92.63 86.33 86.61 C 74.99 83.99 63.95 79.17 52.07 78.88 Z" />
<path fill="#dd0a03" opacity="1.00" d=" M 54.81 84.95 C 55.22 83.31 54.35 80.21 57.07 81.00 C 57.14 85.13 57.06 92.04 50.40 89.02 C 50.40 87.23 50.53 85.44 50.36 83.65 L 50.30 82.74 C 52.32 82.16 53.58 83.61 54.81 84.95 Z" />
<path fill="#dd0a03" opacity="1.00" d=" M 193.11 85.85 C 190.08 77.68 196.44 81.03 195.25 85.07 C 196.64 82.11 198.42 82.24 200.25 84.80 C 200.35 85.07 200.55 85.62 200.65 85.89 C 200.95 90.57 192.91 90.64 193.11 85.85 Z" />
<path fill="#dd0a03" opacity="1.00" d=" M 62.24 83.20 C 68.02 81.58 61.90 86.84 59.91 88.01 C 59.71 86.00 60.60 84.32 62.24 83.20 Z" />
<path fill="#dd0a03" opacity="1.00" d=" M 184.99 82.91 C 188.00 82.46 190.70 85.10 189.98 88.15 C 187.99 86.69 186.33 84.95 184.99 82.91 Z" />
<path fill="#dd0a03" opacity="1.00" d=" M 65.16 85.16 C 69.80 84.16 64.16 89.80 65.16 85.16 Z" />
<path fill="#dd0a03" opacity="1.00" d=" M 183.16 85.16 C 187.80 84.16 182.16 89.80 183.16 85.16 Z" />
<path fill="#dd0a03" opacity="1.00" d=" M 86.93 89.92 C 89.88 90.95 92.29 92.65 94.14 95.03 C 90.97 94.82 88.50 92.51 86.93 89.92 Z" />
<path fill="#dd0a03" opacity="1.00" d=" M 161.39 90.44 C 165.14 89.27 158.99 94.88 156.89 95.03 C 156.78 92.45 159.63 91.65 161.39 90.44 Z" />
<path fill="#dd0a03" opacity="1.00" d=" M 100.85 97.97 C 105.05 98.45 110.13 101.72 111.10 106.08 C 107.33 103.89 103.88 101.09 100.85 97.97 Z" />
<path fill="#dd0a03" opacity="1.00" d=" M 146.33 98.35 C 152.93 96.58 142.06 105.31 138.95 106.08 C 139.22 102.27 143.65 100.59 146.33 98.35 Z" />
<path fill="#dd0a03" opacity="1.00" d=" M 58.76 129.17 C 55.88 111.47 83.11 101.03 95.77 112.19 C 106.75 116.65 116.67 128.14 129.35 125.40 C 145.29 120.16 158.58 102.65 176.92 109.07 C 184.45 112.92 193.80 119.55 191.53 129.18 C 178.44 152.06 159.73 171.55 141.24 190.25 C 136.16 194.51 131.21 199.36 125.00 201.97 C 105.80 190.99 91.91 172.82 77.61 156.34 C 70.98 147.60 63.49 139.10 58.76 129.17 Z" />
</g>
<g id="#7c0a04ff">
<path fill="#7c0a04" opacity="1.00" d=" M 194.59 78.51 C 196.29 77.69 197.50 79.48 198.85 80.20 C 199.48 81.68 199.93 83.23 200.25 84.80 C 198.42 82.24 196.64 82.11 195.25 85.07 C 196.44 81.03 190.08 77.68 193.11 85.85 C 192.91 90.64 200.95 90.57 200.65 85.89 C 205.52 100.77 199.24 116.43 191.53 129.18 C 193.80 119.55 184.45 112.92 176.92 109.07 C 158.58 102.65 145.29 120.16 129.35 125.40 C 116.67 128.14 106.75 116.65 95.77 112.19 C 83.11 101.03 55.88 111.47 58.76 129.17 C 50.07 116.24 44.69 98.87 50.36 83.65 C 50.53 85.44 50.40 87.23 50.40 89.02 C 57.06 92.04 57.14 85.13 57.07 81.00 C 54.35 80.21 55.22 83.31 54.81 84.95 C 53.58 83.61 52.32 82.16 50.30 82.74 C 50.75 81.39 51.35 80.10 52.07 78.88 C 63.95 79.17 74.99 83.99 86.33 86.61 C 96.25 92.63 106.05 99.05 117.08 102.94 C 128.73 107.08 140.08 100.20 149.96 94.93 C 162.74 84.67 179.20 82.59 194.59 78.51 M 62.24 83.20 C 60.60 84.32 59.71 86.00 59.91 88.01 C 61.90 86.84 68.02 81.58 62.24 83.20 M 184.99 82.91 C 186.33 84.95 187.99 86.69 189.98 88.15 C 190.70 85.10 188.00 82.46 184.99 82.91 M 65.16 85.16 C 64.16 89.80 69.80 84.16 65.16 85.16 M 183.16 85.16 C 182.16 89.80 187.80 84.16 183.16 85.16 M 86.93 89.92 C 88.50 92.51 90.97 94.82 94.14 95.03 C 92.29 92.65 89.88 90.95 86.93 89.92 M 161.39 90.44 C 159.63 91.65 156.78 92.45 156.89 95.03 C 158.99 94.88 165.14 89.27 161.39 90.44 M 100.85 97.97 C 103.88 101.09 107.33 103.89 111.10 106.08 C 110.13 101.72 105.05 98.45 100.85 97.97 M 146.33 98.35 C 143.65 100.59 139.22 102.27 138.95 106.08 C 142.06 105.31 152.93 96.58 146.33 98.35 Z" />
</g>
</svg>

<?xml version="1.0" encoding="utf-8"?>
<!-- Generator: Adobe Illustrator 26.0.3, SVG Export Plug-In . SVG Version: 6.00 Build 0)  -->
<svg version="1.1" id="Layer_1" xmlns="http://www.w3.org/2000/svg" xmlns:xlink="http://www.w3.org/1999/xlink" x="0px" y="0px"
	 viewBox="0 0 250 250" style="enable-background:new 0 0 250 250;" xml:space="preserve">
<style type="text/css">
	.st0{fill:#DD0A03;}
	.st1{fill:#7C0A04;}
</style>
<g id="_x23_dd0a03ff">
	<path class="st0" d="M52.1,78.9C57.8,63.8,75.2,54,91.1,55.8c14.3,1.3,21.9,14.5,33.9,20.2c10-4.4,16.1-15,26.9-18.2
		c18-7.4,40.4,4.6,47,22.4c-1.4-0.7-2.6-2.5-4.3-1.7c-15.4,4.1-31.8,6.2-44.6,16.4c-9.9,5.3-21.2,12.2-32.9,8
		c-11-3.9-20.8-10.3-30.8-16.3C75,84,64,79.2,52.1,78.9z"/>
	<path class="st0" d="M54.8,84.9c0.4-1.6-0.5-4.7,2.3-3.9c0.1,4.1,0,11-6.7,8c0-1.8,0.1-3.6,0-5.4l-0.1-0.9
		C52.3,82.2,53.6,83.6,54.8,84.9z"/>
	<path class="st0" d="M193.1,85.8c-3-8.2,3.3-4.8,2.1-0.8c1.4-3,3.2-2.8,5-0.3c0.1,0.3,0.3,0.8,0.4,1.1
		C200.9,90.6,192.9,90.6,193.1,85.8z"/>
	<path class="st0" d="M62.2,83.2c5.8-1.6-0.3,3.6-2.3,4.8C59.7,86,60.6,84.3,62.2,83.2z"/>
	<path class="st0" d="M185,82.9c3-0.5,5.7,2.2,5,5.2C188,86.7,186.3,84.9,185,82.9z"/>
	<path class="st0" d="M65.2,85.2C69.8,84.2,64.2,89.8,65.2,85.2z"/>
	<path class="st0" d="M183.2,85.2C187.8,84.2,182.2,89.8,183.2,85.2z"/>
	<path class="st0" d="M86.9,89.9c2.9,1,5.4,2.7,7.2,5.1C91,94.8,88.5,92.5,86.9,89.9z"/>
	<path class="st0" d="M161.4,90.4c3.8-1.2-2.4,4.4-4.5,4.6C156.8,92.4,159.6,91.7,161.4,90.4z"/>
	<path class="st0" d="M100.8,98c4.2,0.5,9.3,3.8,10.2,8.1C107.3,103.9,103.9,101.1,100.8,98z"/>
	<path class="st0" d="M146.3,98.3c6.6-1.8-4.3,7-7.4,7.7C139.2,102.3,143.6,100.6,146.3,98.3z"/>
	<path class="st0" d="M58.8,129.2c-2.9-17.7,24.4-28.1,37-17c11,4.5,20.9,15.9,33.6,13.2c15.9-5.2,29.2-22.8,47.6-16.3
		c7.5,3.8,16.9,10.5,14.6,20.1c-13.1,22.9-31.8,42.4-50.3,61.1c-5.1,4.3-10,9.1-16.2,11.7c-19.2-11-33.1-29.1-47.4-45.6
		C71,147.6,63.5,139.1,58.8,129.2z"/>
</g>
<g id="_x23_7c0a04ff">
	<path class="st1" d="M194.6,78.5c1.7-0.8,2.9,1,4.3,1.7c0.6,1.5,1.1,3,1.4,4.6c-1.8-2.6-3.6-2.7-5,0.3c1.2-4-5.2-7.4-2.1,0.8
		c-0.2,4.8,7.8,4.7,7.5,0c4.9,14.9-1.4,30.5-9.1,43.3c2.3-9.6-7.1-16.3-14.6-20.1c-18.3-6.4-31.6,11.1-47.6,16.3
		c-12.7,2.7-22.6-8.8-33.6-13.2c-12.7-11.2-39.9-0.7-37,17c-8.7-12.9-14.1-30.3-8.4-45.5c0.2,1.8,0,3.6,0,5.4c6.7,3,6.7-3.9,6.7-8
		c-2.7-0.8-1.8,2.3-2.3,3.9c-1.2-1.3-2.5-2.8-4.5-2.2c0.5-1.3,1-2.6,1.8-3.9C64,79.2,75,84,86.3,86.6c9.9,6,19.7,12.4,30.8,16.3
		c11.6,4.1,23-2.7,32.9-8C162.7,84.7,179.2,82.6,194.6,78.5 M62.2,83.2c-1.6,1.1-2.5,2.8-2.3,4.8C61.9,86.8,68,81.6,62.2,83.2
		 M185,82.9c1.3,2,3,3.8,5,5.2C190.7,85.1,188,82.5,185,82.9 M65.2,85.2C64.2,89.8,69.8,84.2,65.2,85.2 M183.2,85.2
		C182.2,89.8,187.8,84.2,183.2,85.2 M86.9,89.9c1.6,2.6,4,4.9,7.2,5.1C92.3,92.7,89.9,90.9,86.9,89.9 M161.4,90.4
		c-1.8,1.2-4.6,2-4.5,4.6C159,94.9,165.1,89.3,161.4,90.4 M100.8,98c3,3.1,6.5,5.9,10.2,8.1C110.1,101.7,105.1,98.4,100.8,98
		 M146.3,98.3c-2.7,2.2-7.1,3.9-7.4,7.7C142.1,105.3,152.9,96.6,146.3,98.3z"/>
</g>
</svg>
